X: 11
T: Easy Club (\251Jim Sutherland;R-98)
I: Easy Club	R-98	A	reel
M: C|
R: reel
K: A
E2| "A"A2cA "E"BcdB| "A"cdec "D"defg| "A"agae faec| "E"dcc(B B)dcB|
    "A"A2cA "E"BcdB| "A"cdec "D"defg| "A"agae faec| "G"dB=GB "A"A2 :|
|:ce| "D"faa(d d)aga| "A"eaa(c c)aga| "D"faa(d d)aga| "A"cee(B "E"B)dcB|
    "A"A2cA "E"BcdB| "A"cdec "D"defg| "A"agae faec| "G"dB=GB "A"A2 :|
%%scale .5
%%text 08/29/98 

#include "LeftHeader.h"
%%footer 01/20/02 For use only by Roaring Jelly members
% ---------- set 10 ----------
% Coleraine (Am) / Shandon Bells (D) / Caliope House (E)
%%text Set 10
%%vskip -1cm
%%scale .75
